X: 7112
T: Christmas Eve
R: reel
M: 4/4
K: Gmajor
|:E|D3E G2GA|B2dB ABG(B|AB)GE DB,DE|GABG ABGE|
DB,DE GFGA|~B2dB ABGA|BAAB GEBG|ABGF G3:|
|:A|(BA) ((3Bcd) edeg|a2ge g2eg|a2af g2ge|d2dB ABGA|
(BA) ((3Bcd) edeg|a2ge g2eg|a2ge dB~B2|ABGF G3:|
|:A|BG (3GGG BGBd|eg ~g2 egec|BG GGG dGBG|EA (3AAA EAcA|
BG (3GGG BGBd|eg ~g2 g3a|bgaf gedB|ABGF G3:|

